!!!COM:  Andersen, Karl Joachim
!!!OPR:  24 Etudes op.15
!!!OTL:  Etude No. 12
!!!ONB:  Royal Conservatory of Music Grade 10
!!!YEC:  Copyright 2001, Joy Ollen
!!!YEM:  Rights to all derivative electronic formats reserved.
!! [Allegro non troppo]
**kern	**dynam
*>[A,1st ending A,A,2nd ending A,B,1st ending B,B,2nd ending B,C,D,A,2nd ending A,B,2nd ending B,C]	*>[A,1st ending A,A,2nd ending A,B,1st ending B,B,2nd ending B,C,D,A,2nd ending A,B,2nd ending B,C]
*>long[A,1st ending A,A,2nd ending A,B,1st ending B,B,2nd ending B,C,D,A,1st ending A,A,2nd ending A,B,1st ending B,B,2nd ending B,C]	*>long[A,1st ending A,A,2nd ending A,B,1st ending B,B,2nd ending B,C,D,A,1st ending A,A,2nd ending A,B,1st ending B,B,2nd ending B,C]
*MM116	*
*clefG2	*
*k[f#c#g#d#a#]	*
*M3/4	*
*>A	*>A
=-	=-
(16b	mf
16dd#	.
16gg#	.
16ff#)	.
(16a#	.
16cc#	.
16gg#	.
16ff#)	.
(16ee	.
16ff#	.
16ddd#	.
16ccc#)	.
=2	=2
(16ee	.
16ff#	.
16ddd#	.
16ccc#)	.
(16dd#	<
16ff#	(
16ccc#	(
16bb)	(
(16ff#	(
16bb	(
16eee	(
16ddd#)	(
=3	=3
(16gg#	Xf
16bb	Xmf
16fff#	.
16eee)	.
(16ff#	<
16bb	(
16eee	(
16ddd#)	(
(16ee#	(
16bb	(
16dddn	(
16ccc#)	Xf
=4	=4
(16ff#	>
16aa#	)
16ddd#	)
16ccc#)	)
(16b	)
16een	)
16aa#	)
16gg#)	)
(16a#	)
16cc#	)
16gg#	)
16ff#),	)
=5	=5
(16g#	p
16b	<
16ff#	(
16ee)	(
(16gn	(
16a#	(
16ee	(
16dd#)	(
(16cc	(
16ff#	(
16aa	(
16gg#)	(
=6	=6
(16b	(
16ee#	(
16aa#	(
16gg#)	(
(16a#	(
16cc#	(
16gg#	(
16ff#)	(
(16een	(
16ff#	(
16ddd#	(
16ccc#)	(
=7	=7
(16dd#	f
16ff#	.
16ccc#	.
16bb)	.
(16cc#	.
16ff#	.
16bb	.
16aa#)	.
(16b	.
16dd#	.
16aa#	.
16gg#)	.
=8a	=8a
*>1st ending A	*>1st ending A
(16g#	>
16b	)
16ff#	)
16ee#)	)
(16e#	)
16b	)
16dd#	)
16cc#)	)
(16f#	)
16een	)
16gg#	)
16ff#),	)
.	]
=8b	=8b
*>2nd ending A	*>2nd ending A
(16g#	f
16b	.
16ff#	.
16ee#)	.
(16e#	.
16b	.
16dd#	.
16cc#)	.
(16f#	.
16a#	.
16dd#	.
16cc#),	.
=9	=9
*>B	*>B
(16een	p
16ff#	.
16ddd#	.
16ccc#)	.
(16dd#	.
16ff#	.
16ccc#	.
16bb#)	.
(16b#	.
16ff#	.
16aan	.
16gg#)	.
=10	=10
(16cc#	<
16ee	.
16aan	.
16gg#)	.
(16b	.
16ee	.
16aa#	.
16gg#)	.
(16a#	.
16cc#	.
16gg#	.
16ff#)	.
=11	=11
(16g#	<
16b	(
16ff#	(
16ee)	(
(16gn	(
16b	(
16ff#	(
16ee)	(
(16f#	(
16b	(
16ee	(
16dd#)	(
=12	=12
(16e#	(
16b	(
16dd#	(
16cc#)	(
(16en	(
16b	(
16ddn	(
16cc#)	(
(16d#	Xmf
16b	.
16gg#	.
16ff#),	.
=13	=13
(16e	f
16b	.
16aa#	.
16gg#)	.
(16g#	p
16b	.
16ff#	.
16ee)	.
(16e	f
16b	.
16aa#	.
16gg#)	.
=14	=14
(16d#	f
16b	.
16gg#	.
16ff#)	.
(16f#	p
16b	.
16ee	.
16dd#)	.
(16d#	f
16b	.
16gg#	.
16ff#)	.
=15	=15
(16a#	p
16cc#	<
16ee#	(
16ff#)	(
(16b	(
16dd#	(
16ff##	(
16gg#)	(
(16cc#	(
16ee#	(
16aa#	(
16bb)	(
=16a	=16a
*>1st ending B	*>1st ending B
(16ee#	f
16gg#	.
16bb#	.
16ccc#)	.
(16ddd#	.
16ccc#	.
16bbn	.
16gg#)	.
(16ff#	.
16ee#	.
16gg#	.
16ff#),	.
=16b	=16b
*>2nd ending B	*>2nd ending B
(16ee#	f
16gg#	.
16bb#	.
16ccc#)	.
(16ddd#	>
16ccc#	)
16bbn	)
16gg#)	)
(16ff#	)
16ee#	)
16een	)
16cc#),	)
=17	=17
*>C	*>C
(16b	mf
16dd#	.
16gg#	.
16ff#)	.
(16a#	.
16cc#	.
16gg#	.
16ff#)	.
(16een	.
16ff#	.
16ddd#	.
16ccc#)	.
=18	=18
(16ee	.
16ff#	.
16ddd#	.
16ccc#)	.
(16dd#	<
16ff#	(
16ccc#	(
16bb)	(
(16ff#	(
16bb	(
16eee	(
16ddd#)	(
.	[
=19	=19
(16gg#	Xf
16bb	Xmf
16fff#	.
16eee)	.
(16ff#	<
16bb	(
16eee	(
16ddd#)	(
(16ee#	(
16bb	(
16dddn	(
16ccc#)	(
.	Xf
=20	=20
(16ff#	>
16aa#	)
16ddd#	)
16ccc#)	)
(16b	)
16een	)
16aa#	)
16gg#)	)
(16a#	)
16cc#	)
16gg#	)
16ff#),	)
=21	=21
(16g#	p
16b	<
16ff#	(
16ee)	(
(16gn	(
16a#	(
16ee	(
16dd#)	(
(16ccn	(
16ff#	(
16aan	(
16gg#)	(
=22	=22
(16b	(
16ee#	(
16aa#	(
16gg#)	(
(16a#	(
16cc#	(
16gg#	(
16ff#)	(
(16een	(
16ff#	(
16ddd#	(
16ccc#)	(
=23	=23
(16dd#	f
16ff#	.
16ccc#	.
16bb)	.
(16cc#	.
16ff#	.
16bb	.
16aa#)	.
(16b	.
16dd#	.
16aa#	.
16gg#)	.
=24	=24
(16g#	>
16b	)
16ff#	)
16ee#)	)
(16e#	)
16b	)
16dd#	)
16cc#)	)
(16f#	)
16een	)
16gg#	)
16ff#),	)
=25	=25
(16b	mf
16dd#	.
16gg#	.
16ff#)	.
(16a#	.
16cc#	.
16gg#	.
16ff#)	.
(16ee	.
16ff#	.
16ddd#	.
16ccc#)	.
=26	=26
(16ee	.
16ff#	.
16ddd#	.
16ccc#)	.
(16dd#	<
16ff#	(
16ccc#	(
16bb)	(
(16ff#	(
16bb	(
16eee	(
16ddd#)	(
=27	=27
(16gg#	Xf
16bb	Xmf
16fff#	.
16eee)	.
(16ff#	<
16bb	(
16eee	(
16ddd#)	(
(16ee#	(
16bb	(
16dddn	(
16ccc#)	(
.	Xf
=28	=28
(16ff#	>
16aa#	)
16ddd#	)
16ccc#)	)
(16b	)
16een	)
16aa#	)
16gg#)	)
(16a#	)
16cc#	)
16gg#	)
16ff#),	)
=29	=29
(16g#	p
16b	<
16ff#	(
16ee)	(
(16gn	(
16a#	(
16ee	(
16dd#)	(
(16ccn	(
16ff#	(
16aan	(
16gg#)	(
=30	=30
(16b	(
16ee#	(
16aa#	(
16gg#)	(
(16a#	(
16cc#	(
16gg#	(
16ff#)	(
(16een	f
16ff#	.
16ddd#	.
16ccc#)	.
=31	=31
(16dd#	.
16ff#	.
16ccc#	.
16bb)	.
(16e	.
16b	.
16aa#	.
16gg#)	.
(16f#	<
16dd#	(
16gg#	(
16ff#)	(
=32	=32
(16f#	(
16dd#	(
16ff#	(
16ee)	(
(16f#	(
16b#	(
16dd#	(
16cc#)	(
4bn	(
.	Xff
!! Fine	.
==|!33	==|!33
*>D	*>D
*k[f#]	*
(16g	p
16b	.
16ee	.
16dd	.
16b	.
16dd	.
16aa	.
16gg	.
16ee	.
16dd	.
16b	.
16g	.
=34	=34
16d)	.
(16g	f
16cc	.
16b	.
16g	.
16b	.
16ee	.
16dd	.
16b	.
16dd	.
16aa	.
16gg),	.
=35	=35
(16a	p
16cc	.
16gg	.
16ff#	.
16cc	.
16dd	.
16bb	.
16aa	.
16ff#	.
16dd	.
16cc	.
16a	.
=36	=36
16d)	.
(16cc	f
16ee	.
16dd	.
16a	.
16cc	.
16gg	.
16ff#	.
16cc	.
16dd	.
16bb	.
16aa)	.
=37	=37
(16b	f
16dd	.
16aa	.
16gg	.
16dd	.
16gg	.
16ccc	.
16bb	.
16gg	.
16bb	.
16eee	.
16ddd),	.
=38	=38
(16cc	<
16ee	(
16bb	(
16aa	(
16ee	(
16aa	(
16ddd	(
16ccc	(
16aa	(
16ccc	(
16fff#	(
16eee)	(
=39	=39
(16gg	ff
16ccc#	.
16fff#	.
16eee	.
16ff#	>
16ccc#	)
16eee	)
16ddd)	)
(16dd	)
16ff#	)
16bb	)
16aa)	)
=40	=40
(16ccn	)
16ff	)
16gg	)
16ff#)	)
(16a	)
16cc	)
16ee	)
16dd	)
16cc	)
16a	)
16f#	)
16d),	)
=41	=41
(16g	p
16b	.
16ee	.
16dd	.
16b	.
16dd	.
16aa	.
16gg	.
16ee	.
16dd	.
16b	.
16g	.
=42	=42
16d)	.
(16g	f
16cc	.
16b	.
16g	.
16b	.
16ee	.
16dd	.
16b	.
16dd	.
16aa	.
16gg),	.
=43	=43
(16fn	p
16b	.
16ee	.
16dd	.
16b	.
16dd	.
16aa	.
16gg	.
16ffn	.
16dd	.
16b	.
16g	.
=44	=44
16fn)	.
(16b	f
16ee	.
16dd	.
16b	.
16dd	.
16aa	.
16gg	.
16dd	.
16ff#	.
16ccc	.
16bb)	.
=45	=45
(16f#	f
16b	<
16ee	(
16dd	(
16b	(
16dd	(
16gg	(
16ff#)	(
(16dd	(
16ff#	(
16bb	(
16ddd	(
=46	=46
16fff#)	[
(16bb#	ff
16ddd	.
16ccc#	.
16aa#	.
16ee#	.
16gg	.
16ff#	.
16een	.
16cc#	.
16a#	.
16f#),	.
=47	=47
(16b	p
16dd	<
16gg	(
16ff#	(
16dd	(
16ff#	(
16ccc#	(
16bb	(
16ff#	(
16dd	(
16b	(
16f#)	(
.	Xmf
=48	=48
(16d	Xmp
16f#	<
16cc#	(
16b	(
16f#	(
16b	(
16ee	(
16dd	(
16b	(
16dd	(
16gg	(
16ff#)	(
=49	=49
(16a	f
16dd	.
16gg	.
16ffn)	.
(16g#	.
16dd	.
16ff#	.
16ee	.
16dd	.
16b	.
16g#	.
16fn	.
=50	=50
16e),	.
(16g#	p
16cc	.
16b	.
16g#	<
16b	(
16ee	(
16dd	(
16b	(
16dd	(
16aa	(
16gg#)	(
=51	=51
(16ccn	Xmp
16ee	.
16bb	<
16aa)	(
(16dd	(
16ffn	(
16ccc	(
16bb)	(
(16b	(
16dd	(
16aa	(
16gg#)	(
=52	=52
(16cc	(
16ee	(
16bb	(
16aa)	(
(16b	(
16ee	(
16aa	(
16ggn)	(
(16a#	(
16ee	(
16gg	(
16ff#)	(
=53	=53
(16an	f
16dd#	.
16gg	.
16ff#)	.
(16dd#	.
16ff#	.
16ccc	.
16bb	.
16aa	.
16ff#	.
16dd#	.
16cc	.
=54	=54
16b),	.
(16dd#	p
16gg	.
16ff#	.
16dd#	<
16ff#	(
16bb	(
16aa	(
16ff#	(
16aa	(
16eee	(
16ddd#)	(
=55	=55
(16gg	Xmp
16bb	.
16fff#	.
16eee)	.
(16aa	.
16ccc	.
16ggg	<
16fff#)	(
(16ff#	(
16aa	(
16eee	(
16ddd#)	(
=56	=56
(16gg	(
16bb	(
16fff#	(
16eee)	(
(16ff#	(
16bb	(
16eee	(
16dddn)	(
(16ee#	(
16bb	(
16ddd	(
16ccc#)	(
=57	=57
(16ff#	f
16aa#	.
16ddd#	.
16ccc#)	.
(16aa#	.
16ccc#	.
16ggg#	.
16fff#	.
16ccc#	.
16aa#	.
16ff#	.
16cc#	.
=58	=58
16ddn)	.
(16ee#	.
16ccc#	.
16bb	.
16b)	.
(16dd	>
16aa#	)
16gg#	)
16g#)	)
(16b	)
16ff#	)
16ee#)	)
=59	=59
(16a#	mf
16cc#	.
16gg#	.
16ff#)	.
(16cc#	.
16ff#	.
16bb	.
16aa#	.
16ff#	.
16cc#	.
16a#	.
16f#	.
=60	=60
16e#)	.
(16cc#	.
16een	.
16ddn	.
16e#)	>
(16b#	)
16dd	)
16cc#	)
16e#)	)
(16a#	)
16cc#	)
16bn)	)
=61	=61
(16a#	p
16cc#	.
16gg#	.
16ff#	.
16cc#	.
16ff#	.
16bb	.
16aa#	.
16ff#	.
16cc#	.
16a#	.
16f#)	.
=62	=62
(16b	.
16dd#	.
16aa#	<
16gg#	(
16dd#	(
16gg#	(
16ccc#	(
16bb	(
16gg#	(
16dd#	(
16b	(
16f#)	(
=63	=63
(16cc#	(
16een	(
16bb	(
16aa#	(
16ee	(
16aa#	(
16ddd#	(
16ccc#x	(
! There was no # in the score	!
16aa#	(
16ee	(
16cc#	(
16f#)	(
=64	=64
(16dd#	(
16ff#	(
16ccc#	(
16bb	(
16ff#	(
16bb	(
16eee	(
16ddd#	(
16bb	(
16ff#	(
16dd#	(
16f#)	(
=65	=65
(16ee	f
16ff#	.
16ddd#	.
16ccc#)	.
(16f#	.
16ee#	.
16gg#	.
16ff#)	.
(16dd#	.
16ff#	.
16ccc#	.
16bb)	.
=66	=66
(16f#	.
16ee#	.
16gg#	.
16ff#)	.
(16ddn	.
16ff#	.
16ccc#	.
16bb)	.
(16f#	.
16ee#	.
16ggn	.
16ff#)	.
=67	=67
16cc#'^	.
(16een	.
16bb	.
16aa#)	.
16f#'^	.
(16ff##	.
16aa#	.
16gg#)	.
16f#'^	.
(16ee#	.
16gg#	.
16ff#)	.
=68	=68
16f#'^	>
(16dd#	)
16ff#	)
16ee)	)
16f#'^	)
(16b#	)
16dd#	)
16cc#)	)
16f#'^	Xmf
(16g##	.
16bn	.
16a#)	.
==	==
!! D.C. (Da Capo)	
*k[f#c#g#d#a#]	*
*-	*-
